vendor/shopware/storefront/Resources/app/storefront/dist/assets/icon/default/mobile.svg

<svg xmlns="http://www.w3.org/2000/svg" width="24" height="24" viewBox="0 0 24 24">
  <path fill="#758CA3" fill-rule="evenodd" d="M12,19 C12.5522847,19 13,19.4477153 13,20 C13,20.5522847 12.5522847,21 12,21 C11.4477153,21 11,20.5522847 11,20 C11,19.4477153 11.4477153,19 12,19 Z M7,0 L17,0 C18.6568542,-3.04359188e-16 20,1.34314575 20,3 L20,21 C20,22.6568542 18.6568542,24 17,24 L7,24 C5.34314575,24 4,22.6568542 4,21 L4,3 C4,1.34314575 5.34314575,3.04359188e-16 7,0 Z M7,2 C6.44771525,2 6,2.44771525 6,3 L6,21 C6,21.5522847 6.44771525,22 7,22 L17,22 C17.5522847,22 18,21.5522847 18,21 L18,3 C18,2.44771525 17.5522847,2 17,2 L7,2 Z"/>
</svg>

<svg xmlns="http://www.w3.org/2000/svg" width="24" height="24" viewBox="0 0 24 24"><path fill="#758CA3" fill-rule="evenodd" d="M12 19c.5523 0 1 .4477 1 1s-.4477 1-1 1-1-.4477-1-1 .4477-1 1-1zM7 0h10c1.6569 0 3 1.3431 3 3v18c0 1.6569-1.3431 3-3 3H7c-1.6569 0-3-1.3431-3-3V3c0-1.6569 1.3431-3 3-3zm0 2c-.5523 0-1 .4477-1 1v18c0 .5523.4477 1 1 1h10c.5523 0 1-.4477 1-1V3c0-.5523-.4477-1-1-1H7z"/></svg>
